static/img/xr/Slider_32_Text_2_Anatomy.svg

<svg fill="none" height="86" viewBox="0 0 208 86" width="208" xmlns="http://www.w3.org/2000/svg"><g fill="#89c6ed"><circle cx="33" cy="75" r="1"/><circle cx="43.1428" cy="75" r="1"/><circle cx="53.2858" cy="75" r="1"/><circle cx="63.4286" cy="75" r="1"/><circle cx="73.5714" cy="75" r="1"/><circle cx="83.7142" cy="75" r="1"/><circle cx="93.8572" cy="75" r="1"/><circle cx="104" cy="75" r="1"/><circle cx="114.143" cy="75" r="1"/><circle cx="124.286" cy="75" r="1"/><circle cx="134.429" cy="75" r="1"/><circle cx="144.571" cy="75" r="1"/><circle cx="154.714" cy="75" r="1"/><circle cx="164.857" cy="75" r="1"/><circle cx="175" cy="75" r="1"/><rect height="2" rx="1" width="144" x="32" y="57"/></g><path d="m99.9775 16h-.5009v-3.8437h-1.3477v-.4395h3.1901v.4395h-1.3415zm2.4025-3.2109v3.2109h-.486v-3.2109zm-.237-1.2012c.08 0 .148.0264.205.0791.058.0508.088.1309.088.2403 0 .1074-.03.1875-.088.2402-.057.0527-.125.0791-.205.0791-.084 0-.155-.0264-.211-.0791-.055-.0527-.082-.1328-.082-.2402 0-.1094.027-.1895.082-.2403.056-.0527.127-.0791.211-.0791zm2.305 4.0723c.08 0 .162-.0068.246-.0205s.153-.0303.205-.0498v.3779c-.056.0254-.135.0469-.237.0645-.1.0175-.197.0263-.293.0263-.17 0-.324-.0293-.463-.0879-.138-.0605-.25-.1621-.334-.3046-.082-.1426-.123-.3399-.123-.5918v-1.9043h-.457v-.2373l.46-.1905.194-.6972h.292v.7441h.941v.3809h-.941v1.8896c0 .2012.046.3516.138.4512.094.0996.218.1494.372.1494zm1.591.3398h-.489v-4.5586h.489zm2.265-3.2695c.273 0 .508.0606.703.1816.195.1211.345.2911.448.5098.104.2168.155.4707.155.7617v.3018h-2.217c.005.3769.099.6641.281.8613.181.1973.437.2959.767.2959.204 0 .383-.0185.539-.0556.157-.0372.319-.0918.487-.1641v.4277c-.162.0723-.323.125-.484.1582-.158.0332-.345.0498-.562.0498-.309 0-.578-.0625-.809-.1875-.228-.1269-.406-.3125-.533-.5566s-.19-.543-.19-.8965c0-.3457.057-.6445.173-.8965.117-.2539.281-.4492.492-.5859.213-.1367.463-.2051.75-.2051zm-.006.3984c-.26 0-.467.085-.621.2549-.155.1699-.246.4073-.276.7119h1.7c-.002-.1914-.033-.3593-.091-.5039-.057-.1464-.144-.2597-.261-.3398-.117-.082-.268-.1231-.451-.1231z" fill="#252a2e"/><path d="m96.4561 22.8614-2.4268 7.1386h-1.6504l-2.4219-7.1386h1.5284l1.3427 4.248c.0228.0716.0602.2067.1123.4053.0521.1953.1042.4036.1563.625.0553.2181.0928.3987.1123.542.0195-.1433.0537-.3239.1025-.542.0521-.2181.1026-.4248.1514-.6201.0521-.1986.0895-.3353.1123-.4102l1.3525-4.248zm3.0224 1.5673c.7325 0 1.2935.1596 1.6845.4786s.586.804.586 1.455v3.6377h-1.04l-.288-.7421h-.039c-.156.1953-.316.3548-.4787.4785s-.3499.2148-.5615.2734-.4688.0879-.7715.0879c-.3223 0-.612-.0619-.8691-.1856-.2539-.1237-.4541-.3125-.6006-.5664-.1465-.2571-.2197-.5826-.2197-.9765 0-.5794.2034-1.0059.6103-1.2793.4069-.2767 1.0173-.4297 1.8311-.459l.9477-.0293v-.2393c0-.2864-.075-.4964-.225-.6298-.1498-.1335-.3582-.2002-.6251-.2002-.2637 0-.5224.0374-.7763.1123-.254.0748-.5079.1692-.7618.2832l-.4931-1.0059c.2897-.153.6136-.2734.9717-.3613.3613-.0879.734-.1319 1.1181-.1319zm.7915 3.042-.5766.0196c-.4818.013-.8171.0993-1.0059.2588-.1855.1595-.2783.3694-.2783.6298 0 .2279.0667.3907.2002.4883.1334.0944.3076.1416.5224.1416.319 0 .5876-.0944.8057-.2832.2215-.1888.3325-.4573.3325-.8056zm4.506 2.5293h-1.489v-7.5976h1.489zm6.578-5.4589v5.4589h-1.143l-.2-.6982h-.078c-.118.1855-.264.3369-.44.4541s-.369.2034-.581.2588c-.211.0553-.431.083-.659.083-.391 0-.731-.0684-1.021-.2051-.289-.14-.516-.3564-.678-.6494-.16-.293-.24-.6738-.24-1.1426v-3.5595h1.49v3.1884c0 .3907.07.6853.21.8838.14.1986.363.2979.669.2979.302 0 .54-.0684.713-.2051.172-.14.292-.3434.361-.6104.071-.2701.107-.5989.107-.9863v-2.5683zm3.813-.1026c.505 0 .939.0977 1.304.293.364.192.646.472.844.8398.199.3679.298.8171.298 1.3477v.7226h-3.52c.016.42.141.7504.376.9913.237.2376.566.3564.986.3564.348 0 .667-.0358.957-.1074s.588-.1791.894-.3223v1.1524c-.271.1334-.554.2311-.85.2929-.293.0619-.649.0928-1.069.0928-.547 0-1.032-.1009-1.455-.3027-.42-.2019-.751-.5095-.992-.9229-.237-.4134-.356-.9342-.356-1.5625 0-.638.107-1.1686.322-1.5918.218-.4264.521-.7454.908-.957.388-.2149.839-.3223 1.353-.3223zm.01 1.0596c-.29 0-.531.0928-.723.2783-.189.1856-.298.4769-.327.874h2.09c-.003-.2213-.044-.4183-.122-.5908-.075-.1725-.189-.3092-.342-.4101-.15-.101-.342-.1514-.576-.1514z" fill="#252a2e"/><rect fill="#cbcdd6" height="32" rx="8" width="20" x="94" y="40"/><path d="m105.607 57.4267c-.067-.58-.2-1.1533-.414-1.6933-.465.1834-.973.2332-1.465.1437-.493-.0895-.95-.3148-1.321-.6504-.554.5733-1.047 1.2067-1.48 1.8733 1.273 1.04 3.366 1.3134 4.68.3267zm-3.187-3.0733c.393-.3667.82-.7067 1.267-1.0067-.406-.3728-.882-.6607-1.4-.8467-.374.58-.32 1.34.133 1.86m1.727-1.3466c.306-.2267.633-.4067.986-.5467-.308-.3-.7-.4984-1.125-.5687-.424-.0704-.86-.0091-1.248.1754.513.2266.987.5466 1.393.94m-4.173-.6467c-.8933 1.2667-.4733 3.1133.56 4.2733.443-.6758.948-1.3095 1.507-1.8933-.574-.6667-.687-1.6133-.267-2.3933-.593-.1467-1.213-.14-1.8.0133zm1.8-.0133 3.66 2.4733c.44-.56.447-1.3467.02-1.9133-.333.1333-.64.32-.92.54.353.42.66.88.9 1.3733m-3.287-3.0467c.394-.28.86-.4333 1.34-.4466-.986-.1667-2-.0534-2.926.3333.533-.06 1.073-.02 1.586.1133zm2.847 3.3934c-.24-.5067-.547-.9734-.907-1.3934-.453.3-.88.64-1.28 1.0067.6.5267 1.447.68 2.187.3867zm1.3-1.4067c.087.6133-.153 1.2267-.627 1.6333.194.4934.34 1 .427 1.52.31-.4605.492-.9953.528-1.5495.035-.5542-.078-1.1078-.328-1.6038zm-.113 3.94c.013.38 0 .7667-.054 1.1467.702-.8995 1.04-2.0298.947-3.1667-.067.7533-.38 1.46-.893 2.02zm3.833-1.6933-2.647-1.5334c.314 1 .307 2.0667-.013 3.0667zm-9.36 1.66c-.387.6333-.6733 1.3266-.84 2.0533.809.6094 1.798.9306 2.811.9125 1.012-.0181 1.989-.3745 2.776-1.0125.18-.4667.266-.9667.253-1.4667-.792.409-1.685.5806-2.572.4943s-1.73-.427-2.428-.9809zm-.413-.48c-.5245-.5337-.9051-1.1914-1.1068-1.9117-.2016-.7204-.2178-1.4801-.0468-2.2083-.7368.869-1.1185 1.984-1.0691 3.1222s.5264 2.2159 1.3357 3.0178c.2067-.7134.5067-1.3934.893-2.02m1.207-6.3267-2.6333-1.5133v3.0333c.7014-.7631 1.6213-1.2915 2.6333-1.5133zm-2.6333 11.8067 2.6533-1.5334c-1.02-.2212-1.9466-.752-2.6533-1.52z" fill="#252a2e"/><path d="m16.25 8.25h77.5v69.5h-77.5z" fill="#89c6ed" fill-opacity=".5" stroke="#fff" stroke-width=".5"/><path d="m114.25 8.25h77.5v69.5h-77.5z" fill="#89c6ed" fill-opacity=".5" stroke="#fff" stroke-width=".5"/><path d="m94.25 40.25h19.5v31.5h-19.5z" fill="#89c6ed" fill-opacity=".5" stroke="#fff" stroke-width=".5"/><path d="m0 8h7.99999v208h-7.99999z" fill="#ff95f8" fill-opacity=".5" transform="matrix(0 -1 1 0 -8 8)"/><path d="m16 78h16v70h-16z" fill="#ff95f8" fill-opacity=".5" transform="matrix(-1 0 0 -1 32 156)"/><path d="m208 78h16v70h-16z" fill="#ff95f8" fill-opacity=".5" transform="matrix(-1 0 0 -1 416 156)"/><path d="m0 86h7.99999v208h-7.99999z" fill="#ff95f8" fill-opacity=".5" transform="matrix(0 -1 1 0 -86 86)"/></svg>

<svg width="208" height="86" viewBox="0 0 208 86" fill="none" xmlns="http://www.w3.org/2000/svg">
<circle cx="33" cy="75" r="1" fill="#89C6ED"/>
<circle cx="43.1428" cy="75" r="1" fill="#89C6ED"/>
<circle cx="53.2858" cy="75" r="1" fill="#89C6ED"/>
<circle cx="63.4286" cy="75" r="1" fill="#89C6ED"/>
<circle cx="73.5714" cy="75" r="1" fill="#89C6ED"/>
<circle cx="83.7142" cy="75" r="1" fill="#89C6ED"/>
<circle cx="93.8572" cy="75" r="1" fill="#89C6ED"/>
<circle cx="104" cy="75" r="1" fill="#89C6ED"/>
<circle cx="114.143" cy="75" r="1" fill="#89C6ED"/>
<circle cx="124.286" cy="75" r="1" fill="#89C6ED"/>
<circle cx="134.429" cy="75" r="1" fill="#89C6ED"/>
<circle cx="144.571" cy="75" r="1" fill="#89C6ED"/>
<circle cx="154.714" cy="75" r="1" fill="#89C6ED"/>
<circle cx="164.857" cy="75" r="1" fill="#89C6ED"/>
<circle cx="175" cy="75" r="1" fill="#89C6ED"/>
<rect x="32" y="57" width="144" height="2" rx="1" fill="#89C6ED"/>
<path d="M99.9775 16H99.4766V12.1563H98.1289V11.7168H101.319V12.1563H99.9775V16ZM102.38 12.7891V16H101.894V12.7891H102.38ZM102.143 11.5879C102.223 11.5879 102.291 11.6143 102.348 11.667C102.406 11.7178 102.436 11.7979 102.436 11.9073C102.436 12.0147 102.406 12.0948 102.348 12.1475C102.291 12.2002 102.223 12.2266 102.143 12.2266C102.059 12.2266 101.988 12.2002 101.932 12.1475C101.877 12.0948 101.85 12.0147 101.85 11.9073C101.85 11.7979 101.877 11.7178 101.932 11.667C101.988 11.6143 102.059 11.5879 102.143 11.5879ZM104.448 15.6602C104.528 15.6602 104.61 15.6534 104.694 15.6397C104.778 15.626 104.847 15.6094 104.899 15.5899V15.9678C104.843 15.9932 104.764 16.0147 104.662 16.0323C104.562 16.0498 104.465 16.0586 104.369 16.0586C104.199 16.0586 104.045 16.0293 103.906 15.9707C103.768 15.9102 103.656 15.8086 103.572 15.6661C103.49 15.5235 103.449 15.3262 103.449 15.0743V13.17H102.992V12.9327L103.452 12.7422L103.646 12.045H103.938V12.7891H104.879V13.17H103.938V15.0596C103.938 15.2608 103.984 15.4112 104.076 15.5108C104.17 15.6104 104.294 15.6602 104.448 15.6602ZM106.039 16H105.55V11.4414H106.039V16ZM108.304 12.7305C108.577 12.7305 108.812 12.7911 109.007 12.9121C109.202 13.0332 109.352 13.2032 109.455 13.4219C109.559 13.6387 109.61 13.8926 109.61 14.1836V14.4854H107.393C107.398 14.8623 107.492 15.1495 107.674 15.3467C107.855 15.544 108.111 15.6426 108.441 15.6426C108.645 15.6426 108.824 15.6241 108.98 15.587C109.137 15.5498 109.299 15.4952 109.467 15.4229V15.8506C109.305 15.9229 109.144 15.9756 108.983 16.0088C108.825 16.042 108.638 16.0586 108.421 16.0586C108.112 16.0586 107.843 15.9961 107.612 15.8711C107.384 15.7442 107.206 15.5586 107.079 15.3145C106.952 15.0704 106.889 14.7715 106.889 14.418C106.889 14.0723 106.946 13.7735 107.062 13.5215C107.179 13.2676 107.343 13.0723 107.554 12.9356C107.767 12.7989 108.017 12.7305 108.304 12.7305ZM108.298 13.1289C108.038 13.1289 107.831 13.2139 107.677 13.3838C107.522 13.5537 107.431 13.7911 107.401 14.0957H109.101C109.099 13.9043 109.068 13.7364 109.01 13.5918C108.953 13.4454 108.866 13.3321 108.749 13.252C108.632 13.17 108.481 13.1289 108.298 13.1289Z" fill="#252A2E"/>
<path d="M96.4561 22.8614L94.0293 30H92.3789L89.957 22.8614H91.4854L92.8281 27.1094C92.8509 27.181 92.8883 27.3161 92.9404 27.5147C92.9925 27.71 93.0446 27.9183 93.0967 28.1397C93.152 28.3578 93.1895 28.5384 93.209 28.6817C93.2285 28.5384 93.2627 28.3578 93.3115 28.1397C93.3636 27.9216 93.4141 27.7149 93.4629 27.5196C93.515 27.321 93.5524 27.1843 93.5752 27.1094L94.9277 22.8614H96.4561ZM99.4785 24.4287C100.211 24.4287 100.772 24.5883 101.163 24.9073C101.554 25.2263 101.749 25.7113 101.749 26.3623V30H100.709L100.421 29.2579H100.382C100.226 29.4532 100.066 29.6127 99.9033 29.7364C99.7406 29.8601 99.5534 29.9512 99.3418 30.0098C99.1302 30.0684 98.873 30.0977 98.5703 30.0977C98.248 30.0977 97.9583 30.0358 97.7012 29.9121C97.4473 29.7884 97.2471 29.5996 97.1006 29.3457C96.9541 29.0886 96.8809 28.7631 96.8809 28.3692C96.8809 27.7898 97.0843 27.3633 97.4912 27.0899C97.8981 26.8132 98.5085 26.6602 99.3223 26.6309L100.27 26.6016V26.3623C100.27 26.0759 100.195 25.8659 100.045 25.7325C99.8952 25.599 99.6868 25.5323 99.4199 25.5323C99.1562 25.5323 98.8975 25.5697 98.6436 25.6446C98.3896 25.7194 98.1357 25.8138 97.8818 25.9278L97.3887 24.9219C97.6784 24.7689 98.0023 24.6485 98.3604 24.5606C98.7217 24.4727 99.0944 24.4287 99.4785 24.4287ZM100.27 27.4707L99.6934 27.4903C99.2116 27.5033 98.8763 27.5896 98.6875 27.7491C98.502 27.9086 98.4092 28.1185 98.4092 28.3789C98.4092 28.6068 98.4759 28.7696 98.6094 28.8672C98.7428 28.9616 98.917 29.0088 99.1318 29.0088C99.4508 29.0088 99.7194 28.9144 99.9375 28.7256C100.159 28.5368 100.27 28.2683 100.27 27.92V27.4707ZM104.776 30H103.287V22.4024H104.776V30ZM111.354 24.5411V30H110.211L110.011 29.3018H109.933C109.815 29.4873 109.669 29.6387 109.493 29.7559C109.317 29.8731 109.124 29.9593 108.912 30.0147C108.701 30.07 108.481 30.0977 108.253 30.0977C107.862 30.0977 107.522 30.0293 107.232 29.8926C106.943 29.7526 106.716 29.5362 106.554 29.2432C106.394 28.9502 106.314 28.5694 106.314 28.1006V24.5411H107.804V27.7295C107.804 28.1202 107.874 28.4148 108.014 28.6133C108.154 28.8119 108.377 28.9112 108.683 28.9112C108.985 28.9112 109.223 28.8428 109.396 28.7061C109.568 28.5661 109.688 28.3627 109.757 28.0957C109.828 27.8256 109.864 27.4968 109.864 27.1094V24.5411H111.354ZM115.167 24.4385C115.672 24.4385 116.106 24.5362 116.471 24.7315C116.835 24.9235 117.117 25.2035 117.315 25.5713C117.514 25.9392 117.613 26.3884 117.613 26.919V27.6416H114.093C114.109 28.0616 114.234 28.392 114.469 28.6329C114.706 28.8705 115.035 28.9893 115.455 28.9893C115.803 28.9893 116.122 28.9535 116.412 28.8819C116.702 28.8103 117 28.7028 117.306 28.5596V29.712C117.035 29.8454 116.752 29.9431 116.456 30.0049C116.163 30.0668 115.807 30.0977 115.387 30.0977C114.84 30.0977 114.355 29.9968 113.932 29.795C113.512 29.5931 113.181 29.2855 112.94 28.8721C112.703 28.4587 112.584 27.9379 112.584 27.3096C112.584 26.6716 112.691 26.141 112.906 25.7178C113.124 25.2914 113.427 24.9724 113.814 24.7608C114.202 24.5459 114.653 24.4385 115.167 24.4385ZM115.177 25.4981C114.887 25.4981 114.646 25.5909 114.454 25.7764C114.265 25.962 114.156 26.2533 114.127 26.6504H116.217C116.214 26.4291 116.173 26.2321 116.095 26.0596C116.02 25.8871 115.906 25.7504 115.753 25.6495C115.603 25.5485 115.411 25.4981 115.177 25.4981Z" fill="#252A2E"/>
<rect x="94" y="40" width="20" height="32" rx="8" fill="#CBCDD6"/>
<path d="M105.607 57.4267C105.54 56.8467 105.407 56.2734 105.193 55.7334C104.728 55.9168 104.22 55.9666 103.728 55.8771C103.235 55.7876 102.778 55.5623 102.407 55.2267C101.853 55.8 101.36 56.4334 100.927 57.1C102.2 58.14 104.293 58.4134 105.607 57.4267ZM102.42 54.3534C102.813 53.9867 103.24 53.6467 103.687 53.3467C103.281 52.9739 102.805 52.686 102.287 52.5C101.913 53.08 101.967 53.84 102.42 54.36M104.147 53.0134C104.453 52.7867 104.78 52.6067 105.133 52.4667C104.825 52.1667 104.433 51.9683 104.008 51.898C103.584 51.8276 103.148 51.8889 102.76 52.0734C103.273 52.3 103.747 52.62 104.153 53.0134M99.98 52.3667C99.0867 53.6334 99.5067 55.48 100.54 56.64C100.983 55.9642 101.488 55.3305 102.047 54.7467C101.473 54.08 101.36 53.1334 101.78 52.3534C101.187 52.2067 100.567 52.2134 99.98 52.3667ZM101.78 52.3534L105.44 54.8267C105.88 54.2667 105.887 53.48 105.46 52.9134C105.127 53.0467 104.82 53.2334 104.54 53.4534C104.893 53.8734 105.2 54.3334 105.44 54.8267M102.153 51.78C102.547 51.5 103.013 51.3467 103.493 51.3334C102.507 51.1667 101.493 51.28 100.567 51.6667C101.1 51.6067 101.64 51.6467 102.153 51.78ZM105 55.1734C104.76 54.6667 104.453 54.2 104.093 53.78C103.64 54.08 103.213 54.42 102.813 54.7867C103.413 55.3134 104.26 55.4667 105 55.1734ZM106.3 53.7667C106.387 54.38 106.147 54.9934 105.673 55.4C105.867 55.8934 106.013 56.4 106.1 56.92C106.41 56.4595 106.592 55.9247 106.628 55.3705C106.663 54.8163 106.55 54.2627 106.3 53.7667ZM106.187 57.7067C106.2 58.0867 106.187 58.4734 106.133 58.8534C106.835 57.9539 107.173 56.8236 107.08 55.6867C107.013 56.44 106.7 57.1467 106.187 57.7067ZM110.02 56.0134L107.373 54.48C107.687 55.48 107.68 56.5467 107.36 57.5467L110.02 56.0134ZM100.66 57.6734C100.273 58.3067 99.9867 59 99.82 59.7267C100.629 60.3361 101.618 60.6573 102.631 60.6392C103.643 60.6211 104.62 60.2647 105.407 59.6267C105.587 59.16 105.673 58.66 105.66 58.16C104.868 58.569 103.975 58.7406 103.088 58.6543C102.201 58.568 101.358 58.2273 100.66 57.6734ZM100.247 57.1934C99.7225 56.6597 99.3419 56.002 99.1402 55.2817C98.9386 54.5613 98.9224 53.8016 99.0934 53.0734C98.3566 53.9424 97.9749 55.0574 98.0243 56.1956C98.0737 57.3338 98.5507 58.4115 99.36 59.2134C99.5667 58.5 99.8667 57.82 100.253 57.1934M101.46 50.8667L98.8267 49.3534V52.3867C99.5281 51.6236 100.448 51.0952 101.46 50.8734V50.8667ZM98.8267 62.6734L101.48 61.14C100.46 60.9188 99.5334 60.388 98.8267 59.62V62.6734Z" fill="#252A2E"/>
<path d="M16.25 8.25H93.75V77.75H16.25V8.25Z" fill="#89C6ED" fill-opacity="0.5" stroke="white" stroke-width="0.5"/>
<path d="M114.25 8.25H191.75V77.75H114.25V8.25Z" fill="#89C6ED" fill-opacity="0.5" stroke="white" stroke-width="0.5"/>
<path d="M94.25 40.25H113.75V71.75H94.25V40.25Z" fill="#89C6ED" fill-opacity="0.5" stroke="white" stroke-width="0.5"/>
<rect y="8" width="7.99999" height="208" transform="rotate(-90 0 8)" fill="#FF95F8" fill-opacity="0.5"/>
<rect x="16" y="78" width="16" height="70" transform="rotate(180 16 78)" fill="#FF95F8" fill-opacity="0.5"/>
<rect x="208" y="78" width="16" height="70" transform="rotate(180 208 78)" fill="#FF95F8" fill-opacity="0.5"/>
<rect y="86" width="7.99999" height="208" transform="rotate(-90 0 86)" fill="#FF95F8" fill-opacity="0.5"/>
</svg>
